icon-svg/scene-dimmed.svg

<?xml version="1.0" encoding="UTF-8"?>
<svg width="32px" fill="#44739e" height="32px" viewBox="0 0 32 32" version="1.1" xmlns="http://www.w3.org/2000/svg" xmlns:xlink="http://www.w3.org/1999/xlink">
            <path 
d="M16.0039,19.3409 L16.0039,12.6739 C17.8419,12.6739 19.3379,14.1689 19.3379,16.0069 C19.3379,17.8449 17.8419,19.3409 16.0039,19.3409 M16.0039,11.0069 C18.7659,11.0079 21.0039,13.2459 21.0039,16.0069 C21.0039,18.7689 18.7659,21.0069 16.0039,21.0069 C13.2419,21.0069 11.0039,18.7689 11.0039,16.0069 C11.0039,14.9719 11.3189,14.0099 11.8579,13.2119 C12.7569,11.8819 14.2779,11.0069 16.0039,11.0069 Z M16.0039,9 C15.4539,9 15.0039,8.551 15.0039,8 C15.0039,7.45 15.4539,7 16.0039,7 C16.5549,7 17.0039,7.45 17.0039,8 C17.0039,8.551 16.5549,9 16.0039,9 Z M24,15.0137 C24.55,15.0137 25,15.4637 25,16.0137 C25,16.5637 24.55,17.0137 24,17.0137 C23.45,17.0137 23,16.5637 23,16.0137 C23,15.4637 23.45,15.0137 24,15.0137 Z M16,23.0137 C16.55,23.0137 17,23.4637 17,24.0137 C17,24.5637 16.55,25.0137 16,25.0137 C15.45,25.0137 15,24.5637 15,24.0137 C15,23.4637 15.45,23.0137 16,23.0137 Z M8,15.0137 C8.55,15.0137 9,15.4637 9,16.0137 C9,16.5637 8.55,17.0137 8,17.0137 C7.45,17.0137 7,16.5637 7,16.0137 C7,15.4637 7.45,15.0137 8,15.0137 Z M10,9.0137 C10.55,9.0137 11,9.4637 11,10.0137 C11,10.5637 10.55,11.0137 10,11.0137 C9.45,11.0137 9,10.5637 9,10.0137 C9,9.4637 9.45,9.0137 10,9.0137 Z M22,11.0137 C21.45,11.0137 21,10.5637 21,10.0137 C21,9.4637 21.45,9.0137 22,9.0137 C22.55,9.0137 23,9.4637 23,10.0137 C23,10.5637 22.55,11.0137 22,11.0137 Z M22,21.0137 C22.55,21.0137 23,21.4637 23,22.0137 C23,22.5637 22.55,23.0137 22,23.0137 C21.45,23.0137 21,22.5637 21,22.0137 C21,21.4637 21.45,21.0137 22,21.0137 Z M10,21.0137 C10.55,21.0137 11,21.4637 11,22.0137 C11,22.5637 10.55,23.0137 10,23.0137 C9.45,23.0137 9,22.5637 9,22.0137 C9,21.4637 9.45,21.0137 10,21.0137 Z"/>
</svg>

<svg xmlns="http://www.w3.org/2000/svg" fill="#44739e" viewBox="0 0 24 24"><path d="M16.0039 19.3409v-6.667c1.838 0 3.334 1.495 3.334 3.333s-1.496 3.334-3.334 3.334m0-8.334c2.762.001 5 2.239 5 5 0 2.762-2.238 5-5 5s-5-2.238-5-5c0-1.035.315-1.997.854-2.795.899-1.33 2.42-2.205 4.146-2.205m0-2.0069c-.55 0-1-.449-1-1 0-.55.45-1 1-1 .551 0 1 .45 1 1 0 .551-.449 1-1 1M24 15.0137c.55 0 1 .45 1 1s-.45 1-1 1-1-.45-1-1 .45-1 1-1m-8 8c.55 0 1 .45 1 1s-.45 1-1 1-1-.45-1-1 .45-1 1-1m-8-8c.55 0 1 .45 1 1s-.45 1-1 1-1-.45-1-1 .45-1 1-1m2-6c.55 0 1 .45 1 1s-.45 1-1 1-1-.45-1-1 .45-1 1-1m12 2c-.55 0-1-.45-1-1s.45-1 1-1 1 .45 1 1-.45 1-1 1m0 10c.55 0 1 .45 1 1s-.45 1-1 1-1-.45-1-1 .45-1 1-1m-12 0c.55 0 1 .45 1 1s-.45 1-1 1-1-.45-1-1 .45-1 1-1"/></svg>
